X:35
T:Christians
T:8 - 7 & 6
S:John Moore's Book 3
Z:Transcribed by Edmund Spriggs 05/2021
%%VWML: Moore1-4495-p24-0
F:https://www.vwml.org/record/Moore3/4495/p24
N:Tune continues on jpeg page 25.
N:The jpeg index has the title as Christian.
N:The minims in bars 4 and 8 should be semibreves.
N:Bar 7 of the Air has 5 beats.
N:
N:
N:
M:C|
L:1/4
V:1 clef=treble
V:2 clef=treble
V:3 clef=treble
V:4 clef=bass
K:G
[V:1]BBBG|ccBG|Ac/B//A//GF|G2|
[V:2]ddd(e/f/)|gggg|ee(dd/c/)|B2|
[V:3]"Air"GBdB|ecdB|cA/B//c//BA|G2|
[V:4]G,G,G,G,|C,C,G,G,|C,C,D,D,|G,,2|
[V:1]AAAA|GBBB/A/|AB/^c/dc/ c/|d2|]
[V:2]dddd|ddde|dba a/g/|f2|]
[V:3]AAd/c/B/A/|BGGB/c/|dgf->f^d|d2|]
[V:4]D,D,D,D,|G,G,G,E,|F,G,A,A,,|D,2|]
[V:1]BcAA|Ged2|BB/ B/ B/c/ d/B/|GcB2|]
[V:2]ggff|dg(gf)|dg/ g/gg|ggg2|]
[V:3]d/B/ec/A/d|B/G/ c/B/ (BA)|B/d/ d/d/ dd|(e/f/) (g/e/) d2|]
[V:4]G,C,D,F,|G,C,D,2|G,G,/ G,/ G,/A,/ B,/G,/|CCG,2|]
[V:1]z4|(G/B/)B(B/A/) (A/G/)|GBcd|cAG(A/c/)|dB/d/d d/>c/|B4|]
[V:2]z4|z4|ggfg|gfea|gggf|g4|]
[V:3](B/d/) B (B/A/) (A/G/)|(B/d/) d (d/c/) (c/B/)|edcB|ef(g/e/) (d/c/)|(B/d/) (d/c/)BA|G4|]
[V:4]G,z1D,z1|G,4|CB,A,G,|C,D,E,F,|G,/ G,,/ B,,/C,/D,D,|G,,4|]

